X:1
T:Title
%%score 1 2
L:1/8
Q:1/4=87
M:3/4
K:Bb
V:1 treble nm="Grand Piano, Soprano"
V:2 bass nm="Choir Pad, Auburndale, 87.887"
V:1
 [DF][DB] [EB] [EA]3 | [EF][Ec] [Ec] [DB]3 | [DF][D^F] [EG]3 [EG] | [EG][EG] [EA]4 | %4
w: By~C.~Armand~Miller~(ca.~1864\-1917) * * *||||
 [DF][DF] [EF]2 [EF]2 | [DF][DF] E2 E2 | [EB][EB] [DB]2 [DB]2 | [_DB][DB] [=DF]2 [EF]2 | %8
w: ||||
 [DF][DF] [EG][EG] [DF]2 | [EF]2 [DF]4- | [DF]2 z2 z2 |] %11
w: |||
V:2
 [B,,B,][B,,F,] [C,F,] [C,F,]3 | [F,A,][F,A,] [B,,B,] [B,,B,]3 | [B,,B,][B,,B,] [E,B,]3 [E,B,] | %3
 [C,C][C,C] [F,C]4 | B,B, [A,C]2 [A,C]2 | [_A,B,][A,B,] [G,B,]2 [G,B,]2 | %6
 [^F,B,][F,B,] [=F,B,]2 [F,B,]2 | [=E,B,][E,G,] [F,B,]2 [F,A,]2 | %8
 [B,,B,][B,,B,] [E,B,][E,B,] [F,B,]2 | [F,A,]2 [B,,B,]4- | [B,,B,]2 z2 z2 |] %11

